src/svg/28/logo_vk_28.svg

<?xml version="1.0" encoding="UTF-8"?>
<svg width="28px" height="28px" viewBox="0 0 28 28" version="1.1" xmlns="http://www.w3.org/2000/svg" xmlns:xlink="http://www.w3.org/1999/xlink">
    <!-- Generator: Sketch 62 (91390) - https://sketch.com -->
    <title>logo_vk_28</title>
    <desc>Created with Sketch.</desc>
    <g id="Page-1" stroke="none" stroke-width="1" fill="none" fill-rule="evenodd">
        <g id="logo_vk_28">
            <rect x="0" y="0" width="28" height="28"></rect>
            <path d="M17.3733333,3 C23.5333333,3 25,4.46666667 25,10.6266667 L25,17.3733333 L25,17.3733333 C25,23.5333333 23.5333333,25 17.3733333,25 L10.6266667,25 L10.6266667,25 C4.46666667,25 3,23.5333333 3,17.3733333 L3,10.6266667 L3,10.6266667 C3,4.46666667 4.46666667,3 10.6266667,3 L17.3733333,3 L17.3733333,3 Z M8.72919464,9.875 L7.12502797,9.875 C6.66669464,9.875 6.57502238,10.0907608 6.57502238,10.3286806 C6.57502238,10.7535697 7.1188714,12.8609564 9.10726989,15.6481261 C10.4328594,17.5515411 12.3005281,18.5833333 14.000028,18.5833333 C15.0197166,18.5833333 15.1458613,18.3541667 15.1458613,17.9594279 L15.1458613,16.5208333 C15.1458613,16.0625 15.2424606,15.9710294 15.5653639,15.9710294 C15.8032837,15.9710294 16.2111704,16.0899893 17.1629062,17.0077204 C18.250576,18.0953901 18.4298928,18.5833333 19.0416946,18.5833333 L20.6458613,18.5833333 C21.1041946,18.5833333 21.3333613,18.3541667 21.2011586,17.9019191 C21.0564892,17.4511825 20.5371856,16.7972238 19.8481184,16.0220081 C19.474208,15.580145 18.9133849,15.1043054 18.743418,14.866329 C18.5054982,14.5604563 18.5734793,14.4244658 18.743418,14.1525696 L18.7719828,14.1120949 C19.013694,13.7685342 20.7124357,11.3326117 20.9018117,10.4646712 C21.003741,10.1247655 20.9018118,9.875 20.4166946,9.875 L18.812528,9.875 C18.4046412,9.875 18.2165996,10.0907608 18.1146137,10.3286806 C18.1146137,10.3286806 17.2988402,12.3171074 16.1431893,13.6087205 C15.7693073,13.9826026 15.5993403,14.1015625 15.3953969,14.1015625 C15.2934394,14.1015625 15.1458333,13.9826026 15.1458333,13.6427252 L15.1458333,10.4646712 C15.1458333,10.0567844 15.0274619,9.875 14.687528,9.875 L12.1666946,9.875 C11.9118008,9.875 11.7585056,10.0643096 11.7585056,10.2437254 C11.7585056,10.6303946 12.3363027,10.719565 12.3958613,11.8072631 L12.3958613,14.1695719 C12.3958613,14.6875 12.3023263,14.7814021 12.0983829,14.7814021 C11.5545622,14.7814021 10.2317168,12.7840922 9.44714724,10.4986476 C9.2933905,10.0544363 9.13917488,9.875 8.72919464,9.875 Z" id="↳-Icon-Color" fill="currentColor" fill-rule="nonzero"></path>
        </g>
    </g>
</svg>

<svg width="28" height="28" fill="none" xmlns="http://www.w3.org/2000/svg"><path d="M17.373 3C23.533 3 25 4.467 25 10.627v6.746C25 23.533 23.533 25 17.373 25h-6.746C4.467 25 3 23.533 3 17.373v-6.746C3 4.467 4.467 3 10.627 3h6.746zM8.73 9.875H7.125c-.458 0-.55.216-.55.454 0 .425.544 2.532 2.532 5.32 1.326 1.903 3.194 2.934 4.893 2.934 1.02 0 1.146-.229 1.146-.624v-1.438c0-.459.096-.55.42-.55.237 0 .645.119 1.597 1.037 1.088 1.087 1.267 1.575 1.879 1.575h1.604c.458 0 .687-.229.555-.681-.145-.45-.664-1.105-1.353-1.88-.374-.442-.935-.918-1.105-1.156-.237-.306-.17-.441 0-.713l.029-.04c.242-.345 1.94-2.78 2.13-3.648.102-.34 0-.59-.485-.59h-1.605c-.407 0-.595.216-.697.454 0 0-.816 1.988-1.972 3.28-.374.374-.544.493-.748.493-.102 0-.25-.12-.25-.46v-3.177c0-.408-.117-.59-.457-.59h-2.521c-.255 0-.409.19-.409.369 0 .386.578.476.638 1.563v2.363c0 .518-.094.611-.298.611-.543 0-1.866-1.997-2.65-4.282-.155-.445-.309-.624-.719-.624z" fill="currentColor"/></svg>
